X:1
T:Loved Ones Are Waiting for Me
T:Loved Ones Are Waiting for Me
T:George W. Bacon
T:James W. Jaggars, 1913
T:Public Domain Courtesy of the Cyber Hymnal™
T:Public Domain Courtesy of the Cyber Hymnal™
C:George W. Bacon
Z:Public Domain
Z:Courtesy of the Cyber Hymnal™
%%score ( 1 2 ) ( 3 4 )
L:1/8
Q:1/4=80
M:4/4
K:E
V:1 treble 
V:2 treble 
V:3 bass 
V:4 bass 
V:1
 [EG][E^^F] | [EG][EB][Ec][EB] [EG][EB][EG][DF] | [CE][CE][CE][DF] [EG]2 (3BcB | c6 (3GFE | %4
w: 1.~When I|cross death’s si- lent ri- ver I shall|find my loved ones there, Wait- ing for|me, wai- ting for|
w: 2.~Oft I|think of my dear fa- ther Who now|lives on that blest shore, ~ ~ ~|~ ~ ~ ~|
w: 3.~I can|al- most hear the sing- ing Of re-|deemed ones in that land, ~ ~ ~|~ ~ ~ ~|
 F6 [DF]2 [EG][E^^F] | [EG][EB][Ec][EB] [EG][EB][EG][DF] | [CE][CE][CE][DF] [EG]2 (3BcB | %7
w: me; Those who’ve gone|* so long be- fore me, And Christ’s|bless- ings ful- ly share, Wait- ing for|
w: ~ With what glad-|* ness he will wel- come, When my|life’s work here is o’er! ~ ~ ~|
w: ~ And I know|* that will be glo- ry, When I|join that hap- py band. ~ ~ ~|
 B6 (3[B,E][B,E][B,F] | [B,E]6 ||"^Refrain" (3Bcd | e6 (3BcB | G6 [Gc][GB] | %12
w: me, wai- ting for|me.|Wait- ing for|me, wait- ing for|me; I shall|
w: ~ ~ ~ ~|~||||
w: ~ ~ ~ ~|~||||
 [GB][GB][Ac][GB] [EG][EG] (3[EG][DF]E x3/8 | F6 D2 [EG][E^^F] | [EG][GB][Ac][GB] [EG][GB][AB]B | %15
w: see them when I cross the won- der- ful|sea; I shall join|* the snow- white an- gels, There to|
w: |||
w: |||
 [Ac][Ad][Ae][Ac] [GB]2 (3Bcd | e6 F(3[EG][B,E][B,F] | E4- [B,E]2 |] %18
w: live e- ter- nal- ly, Wai- ting for|me, wait- ing for me.||
w: |||
w: |||
V:2
 x2 | x8 | x8 | (3(EEE(3DDD E2) x2 | (3DDD(3CDE x6 | x8 | x8 | (3(GGG(3GGG GG) x2 | x6 || x2 | %10
 (3(GGG(3AAA G2) x2 | (3(EEE(3EEE E2) x2 | x22/3 E | DD(3CDE x6 | x7 B | x8 | (3GGG(3GGG G x4 | %17
 B,^A,(3CB,A, x2 |] %18
V:3
 [E,B,][E,^A,] | [E,B,][E,G,][E,A,][E,G,] [E,B,][E,G,][E,B,][B,,A,] | %2
w: ~ ~|~ ~ ~ ~ ~ ~ ~ ~|
 [C,G,][C,G,][C,G,][B,,B,] [E,B,]2 z2 | (3[E,G,][E,G,][D,G,] (3[B,,F,][B,,F,][B,,F,] [E,G,]2 z2 | %4
w: ~ ~ ~ ~ ~|Loved ones are wait- ing for me,|
 (3[B,,B,][B,,B,][B,,B,] (3[F,^A,][F,B,][F,C] [B,,B,]2 [E,B,][E,A,] x2 | %5
w: wait- ing, yes, wait- ing for me; ~ ~|
 [E,B,][E,G,][E,A,][E,G,] [E,B,][E,G,][E,B,][B,,A,] | [C,G,][C,G,][C,G,][B,,B,] [E,B,]2 z2 | %7
w: ~ ~ ~ ~ ~ ~ ~ ~|~ ~ ~ ~ ~|
 (3[E,E][E,E][E,E] (3[G,E][G,E][G,E] [B,E][B,E] (3[B,,G,][B,,G,][B,,A,] | [E,G,]6 || z2 | %10
w: Loved ones are wait- ing for me, yes ~ ~ ~|~||
 (3[E,B,][E,B,][E,B,] (3[A,C][A,C][A,C] [E,B,]2 z2 | %11
w: Loved ones are wait- ing for me,|
 (3[E,B,][E,B,][E,B,] (3[C,C][C,C][C,C] [E,B,]2 [E,E][E,E] | %12
w: Loved ones are wait- ing for me, ~ ~|
 [E,E][E,E][E,E][E,E] [E,B,][E,B,] (3[E,B,][E,A,][E,G,] x3/8 | %13
w: ~ ~ ~ ~ ~ ~ ~ ~ ~|
 [B,,B,][B,,B,] (3[F,^A,][F,B,][F,C] [B,,B,]2 [E,B,][E,A,] x2 | %14
w: ~ the won- der- ful sea; ~ ~|
 [E,B,][E,E][E,E][E,E] [E,B,][E,E][F,D][G,E] | [F,E][F,D][A,C][A,E] [E,E]2 z2 | %16
w: ~ ~ ~ ~ ~ ~ ~ ~|~ ~ ~ ~ ~|
 (3[E,B,][E,B,][E,B,] (3[C,C][C,C][C,C] [E,B,][A,,C] (3[B,,B,][B,,G,][B,,A,] x | %17
w: Loved ones are wait- ing for me, are ~ ~ ~|
 G,^^F, (3A,G,F, [E,G,]2 |] %18
w: ~ yes, wait- ing for me.|
V:4
 x2 | x8 | x8 | x8 | x10 | x8 | x8 | x8 | x6 || x2 | x8 | x8 | x67/8 | x10 | x8 | x8 | x9 | %17
 E,4- x2 |] %18

